src/images/icon/telegram.svg

<svg width="33" height="32" viewBox="0 0 33 32" fill="none" xmlns="http://www.w3.org/2000/svg">
<g clip-path="url(#clip0_57354_400)">
<circle cx="16.2353" cy="16" r="16" fill="#FEA5BB"/>
<path d="M13.1025 18.3753L12.7849 22.5446C13.2393 22.5446 13.4361 22.3624 13.6721 22.1437L15.8026 20.2434L20.2171 23.2607C21.0267 23.6818 21.5971 23.46 21.8155 22.5655L24.7132 9.89318L24.714 9.89243C24.9708 8.77542 24.2812 8.33863 23.4924 8.61265L6.45996 14.6987C5.29753 15.1198 5.31513 15.7246 6.26235 15.9986L10.6169 17.2627L20.7315 11.3559C21.2075 11.0617 21.6403 11.2245 21.2843 11.5187L13.1025 18.3753Z" fill="white"/>
</g>
<defs>
<clipPath id="clip0_57354_400">
<rect width="32" height="32" fill="white" transform="translate(0.235264)"/>
</clipPath>
</defs>
</svg>

<svg xmlns="http://www.w3.org/2000/svg" width="33" height="32" fill="none"><g clip-path="url(#a)"><circle cx="16.2353" cy="16" r="16" fill="#FEA5BB"/><path fill="#fff" d="m13.1025 18.3753-.3176 4.1693c.4544 0 .6512-.1822.8872-.4009l2.1305-1.9003 4.4145 3.0173c.8096.4211 1.38.1993 1.5984-.6952l2.8977-12.6723.0008-.0008c.2568-1.117-.4328-1.5538-1.2216-1.2797L6.46 14.6987c-1.1625.4211-1.1449 1.0259-.1977 1.2999l4.3546 1.2641 10.1146-5.9068c.476-.2942.9088-.1314.5528.1628l-8.1818 6.8566Z"/></g><defs><clipPath id="a"><path fill="#fff" d="M.2353 0h32v32h-32z"/></clipPath></defs></svg>
